X:1
T:Cipriano de Rore 1516?-1565
T:Non è ch'il duol mi scemi
%%score [ 1 2 3 4 ]
L:1/8
Q:1/4=160
M:4/2
K:C
V:1 treble nm="Canto"
V:2 treble nm="Alto"
V:3 treble nm="Tenor"
V:4 treble nm="Basso"
V:1
"^;""^ã" x16 | D12 F8 | E8 G8 x4 | ^F4 G4 E4 =F2 D2 | A6 ^G2 G4 A8 | z8 x8 | z4 d4 c6 B2 | %7
w: |Non è|ch'il duol|mi scem' o~il fuoc' al-|len- * * ti||Sì m'ard' il|
 A4 G4 F4 _B4 | A6 G2 F4 E8 | D6 ^C2 C4 D8 | z4 D4 x8 | E2 F2 G4 E4 z2 E2 | F2 G2 A4 A4 A4 x4 | %13
w: fuoc' ogn' or e~il|duol * * mi|pre- * * me,|Nè|che m'a- i- ti, nè|che m'a- i- ti chiam'|
 c8 B4 B4 | A16 x12 |"^-" x16 x4 ||[M:4/2] z4 A8 F8 | E4 D12 x4 | C4 c6 B2 A4 x8 | %19
w: al- tro che|mor-||Ma mentr'|io las-|so~e di più vi-|
 G4 A6 GF E4 x12 | E4 z4 A6 A2 | G4 ^F2 G2 A4 x6 | E2 ^F2 G2 A2 B4 c6 | B2 B4 A2 B2 c2 BA G2 | %24
w: ver sa- * * *|zio, Scor- go|due sì be- gli~oc-|chi * * * * scor-|go duo si be- gli~oc * * *|
 E2 A4 D2 A2 A2 G2 F4 x2 | E4 z2 c2 c2 B2 x6 | A4 ^G4 z4 E4 x6 | E4 E4 E2 E2 ^F4 x4 | G12 ^F4 x4 | %29
w: * * chi ch'a un mo- men-|to ch'a un mo-|men- to Sent'|il fuo * co can-|giars' in|
 G6 A2 _B4 A4 x4 | G8 E4 z2 A2 x4 | F4 A4 G4 C2 C2 | F4 F4 E3 D E4 | F8 z4 C4 x4 | F4 F4 D4 F4 x4 | %35
w: du- * * ro|ghiac- cio E|di dol- cez- za, e|di dol- cez * *|za il|duol far- si di-|
 E4 D6 ^C2 C2 B,C | D4 A4 _B12 | A4 A4 G4 x4 | A4 A4 z4 A4 | d4 B4 c2 c2 A4 | G8 z4 F4 | %41
w: le * * * * *|to, Io pro-|vo con ef-|fe- to Che|sol un vo- stro sguar-|do un|
 E4 A4 G4 ^F4 | z4 A4 A4 A4 x4 | d8 c4 A4 | B4 c4 A4 c6 x2 | B2 A6 ^G2 G4 A4 x4 | %46
w: cor già spen- to|Vi- vo~e be-|a- to può|far e fe- li|* * * * ce.|
 E4 F2 E2 F2 G2 E8 | z4 z2 D2 G2 C2 D2 E2 | F4 D4 x8 | E4 E4 E8 | E4 z2 E2 F2 E2 F2 G2 x4 | %51
w: Co- sì sie- te di me|Co- sì sie- te di|me ve-|ra bea- tri-|ce co- sì sie- te di|
 E8 z4 z2 D2 | G2 C2 D2 E2 F4 A4 | _B4 A4 A8 | A4 G4 _B4 A4 | G2 D2 d3 c _B2 A2 G8 | %56
w: me co-|sì sie- te di me ve-|ra bea- tri-|ce, ve- ra bea-|tri * * * * * *|
 ^F2 E2 F8"^-" x16 |] x16 |] %58
w: ||
V:2
"^;""^ã" x16 | z8 A,8 x4 | C8 C4 D8 | D4 B,4 C4 A,4 | E4 E8 E4 x4 | D4 C4 B,4 x4 | %6
w: |Non|è ch'il duol|mi scem' o~il fuoc'|al- len- ti,|Sì m'ard' il|
 A,4 G,4 C2 D2 E2 D2 | E8 z4 D4 | F6 E2 D4 C2 B,2 x4 | C4 A,4 A,8 x4 | A,8 z8 | z4 G,4 C2 D2 E4 | %12
w: fuoc' ogn' or * * *|* e~il|duol * * * *|* mi pre-|me,|Nè che m'a- i-|
 D4 C4 F12 | E8 G4 F2 E2 | E6 DC D4"^-" x16 |[M:4/2] z4 C4 D12 || E4 F4 E2 D2 F4 x4 | %17
w: ti, chiam' al-|tro che mor *||Ma mentr'|io las- * * *|
 E4 z4 E4 F4 x4 | E4 D4 D4 C2 D2 x8 | E2 DC B,4 A,4 z16 | z4 G6 G2 F4 | E2 F2 G4 D4 z4 x2 | %22
w: so e di|più vi- ver sa *|* * * * zio|Scor go duo|sì be- gli~oc- chi|
 z4 F4 F2 E2 D4 x2 | C4 z2 B,2 C2 A,2 x4- | x2 D2 E4 z4 C8 | B,4 E4 D8 x2 | D4 D6 D2 E4 x6 | %27
w: cha un mo- men-|to, ch'a un mo- men-|* to Sent'|il fuo- co|can- giars' in du-|
 D4 D8 G,8 | z4 E4 D4 F4 x4 | E3 D E2 F2 x12 | D4 C4 z4 C8 | D8 G,4 A,2 _B,2 | A,4 G,4 C6 G,2 | %33
w: ro ghiac- cio,|E di dol-|cez- * * *|* za il|duol far- si di-|let- to, far- si|
 _B,4 A,8 A,8 | z4 G,4 G4 F4 x4 | D4 E4 x8 | F12 E4 x4 | D4 G4 E4 F2 F2 | D4 C4 z2 C2 D2 D2 | %39
w: di- let- to|Io pro- vo|con ef-|fe- to|Che sol un vo- stro|sguar- do un cor già|
 G,4 D4 z8 | z4 E4 F4 F4 | A8 A4 E4 | G8 F12 | E4 E8 E4 | C4 D2 G,2 A,2 B,2 C8 | %45
w: spen- to|Vi- vo~e be-|a- to può|far e|fe- li- ce.|Co- sì sie- te di me|
 z4 A,2 D2 G,2 A,2 B,2 C2 x6 | A,4 F,4 x12 | G,4 A,8 ^G,4 | z4 C4 D2 G,2 A,2 B,2 | C8 z4 A,2 D2 | %50
w: Co- sì sie- te di me|ve- ra|bea- tri ce,|co- sì sie- te di|me co- sì|
 G,2 A,2 B,2 C2 A,4 D8 | F4 E6 DE x4 | F4 D4 D8 | D4 D4 D8 |"^-" x16- | x16 x4 | x28 |] x16 |] %58
w: sie- te di me ve- ra|bea- tri * *|* ce, ve-|ra bea- tri-|ce.||||
V:3
"^;""^ã" x16 | z8 D,8 x4 | A,8 G,4 _B,8 | A,4 G,4 G,4 D4 | C4 B,8 A,8 | z8 x8 | z8 z4 A,4 | %7
w: |Non|è ch'il duol|mi scem' o~il fuoc'|al- len- ti,||Sì|
 C6 B,2 A,4 G,4 | F,4 A,8 G,8 | F,4 E,8 D,4 x4 | z2 A,2 G,2 A,2 B,4 x4 | B,6 B,2 A,2 B,2 C4 | %12
w: m'ard' il fuoc' ogn'|or e~il duol|mi pre- me,|Nè che m'a- i-|ti, nè che m'a- i-|
 A,4 A,4 D8 x4 | C4 A,4 E6 D2 | C6 B,2 A,8 x12 |"^-" x16 x4 ||[M:4/2][K:treble-8] z4 A4 D4 A4 x4 | %17
w: ti chiam' al-|tro che mor *|||Ma mentr' io|
 _B2 A2 A6 GF G4 x4 | A16 x8 | z16 x12 | z8 d6 d2 | c4 B2 c2 d4 A2 B2 x2 | c2 d2 e4 z8 x2 | %23
w: las * * * * *|so||Scor- go|due sì be- gli~oc- chi *||
 z4 d6 d2 c4 | B2 c2 d4 A4 z4 x4 | z2 A2 A2 G2 F4 E2 B2 x2 | c2 A2 c2 B2 z4 A4 x6 | %27
w: scor- go duo|sì be- gli~oc- chi|ch'a un mo- men- to, ch'a|un mo- men- to Sent'|
 A4 ^G4 A4 A4 x4 | _B12 A4 x4 | _B8 B4 d8 | c2"^(  )" B2 c4 c4 z8 | z4 A4 x8 | F4 A4 G3 F G4 | %33
w: il fuo- co can-|giars' in|du- ro ghiac~~-|* * * cio|E|di dol- cez * *|
 A8 z8 x4 | z4 F4 _B4 A4 x4 | G4 G4 F2 ED E4 | D8 z4 d4 x4 | d6 d2 A4 B4 | d12 ^c4 | z8 A4 d4 | %40
w: za|il duol far-|si di- let * * *|to, Io|pro- vo con ef-|fe- to|Che sol|
 B4 c2 c2 A4 A4 | c4 F4 _B4 A4 | z4 A4 d4 d4 x4 | f8 e4 c4 | d4 e4 c4 A6 x2 | B2 c2 A2 B8 A8 | %46
w: un vo- stro sguar- do~un|cor già spen- to|Vi- vo~e be-|a- to può|far e fe- li-|* * * * ce|
 z8 z4 E4 x4 | F2 E2 F2 G2 E4 z4 | z4 A4 x8 | c4 c4 B8 | A8 z8 x4 | z4 E4 F2 E2 F2 G2 | E4 z4 D8 | %53
w: Co-|sì sie- te di me|ve-|ra bea- tri-|ce|co- sì sie- te di|me ve-|
 d4 d4 ^c3 B c4 | A4 _B4 G4 A4 | _B16 x4 |"^-" x16- x12 |] x16 |] %58
w: ra bea- tri * *|ce, ve- ra bea-|tri|ce.||
V:4
"^;" x16 | z16 x4 | z4 A,,4 C,4 G,,4 x4 | D,6 D,2 E,4 C,4 | D,4 A,,4 E,4 E,4 x4 | z4 F,4 E,6 D,2 | %6
w: ||Non è ch'il|duol mi scem' o~il|fuoc' al- len ti|Sì m'ard' il|
 C,4 B,,4 A,,8 | z8 z4 G,,4 | D,12 G,,4 x4 | A,,8 A,,8 x4 | z4 D,4 E,2 F,2 G,4 | E,8 z4 A,,4 | %12
w: fuoc' ogn' or|e~il|duol mi|pre- me|Nè che m'a- i-|ti, nè|
 D,2 E,2 F,4 D,4 D,4 x4 | A,8 G,4 E,4 | A,6 G,2 F,8 x12 |"^-" x16 x4 ||[M:4/2] z4 F,8 D,8 | %17
w: che m'a- i- ti chiam'|al- tro che|mor- * *||Ma mentr|
 C,4 _B,,8 A,,8 | z8 z16 | A,6 A,2 G,4 ^F,2 G,2 x12 | A,4 E,4 z8 | z8 z4 A,6 | %22
w: io las- so||Scor- go due sì be-|gli~oc- chi|Scor-|
 A,2 G,4 ^F,2 G,2 A,4 E,4 | z2 D,2 D,2 C,2 _B,,4 A,,4 | z4 z2 A,2 A,2 G,2 x8 | F,4 E,4 z4 A,,6 | %26
w: go duo sì be- gli~oc- chi|ch'a un mo- men- to|ch'a un mo-|men- to Sent'|
 A,,2 E,4 ^C,4 D,4 G,,8 | D,8 G,12 | F,4 E,8 A,,8 | z8 z4 A,,4 x4 | _B,,4 F,,4 C,4 C,4 x4 | %31
w: il fuo- co can- giars'|in du-|ro ghiac- cio|E|di dol- cez- za~il|
 F,4 D,4 D,2 F,2 E,4 | D,4 z2 D,2 G,,4 F,,4 | C,2 C,2 G,,4 A,,8 x4 | z4 F,4 G,12 | D,4 F,4 E,4 x4 | %36
w: duol far- si di- let-|to il duol far-|si di- let- to,|Io pro-|vo con ef-|
 D,2 E,2 F,2 G,2 A,4 A,4 x4 | z8 z4 D,4 | G,4 E,4 F,2 F,2 D,4 | C,4 D,2 D,2 G,,4 D,4 | z8 z4 D,4 | %41
w: fe * * * * to|Che|sol un vo- stro sguar-|do~un cor già spen- to|Vi-|
 D,4 D,4 A,8 | G,4 C,4 F,8 x4 | A,4 A,4 E,8 | A,,8 z8 x4 | z4 A,,4 D,2 G,,2 A,,2 B,,2 x6 | %46
w: vo~e be- a-|to può far|e fe- li-|ce|Co- sì sie- te di|
 C,4 z4 D,8 x4 | C,4 A,,4 E,8 | A,,8 z8 | z4 A,,4 D,2 G,,2 A,,2 B,,2 | C,4 z4 F,8 x4 | %51
w: me ve-|ra bea- tri-|ce|co- sì sie- te di|me ve-|
 G,4 D,4 A,8 | D,4 G,4 G,4 ^F,4 | G,16 |"^-" x16- | x16 x4 | x28 |] x16 |] %58
w: ra bea- tri-|ce, ve- ra bea-|tri|ce.||||

